X:1
T:Thus saith my Galatea - Morley
T:#
%%score [ 1 2 { 3 | 4 } 5 ]
L:1/8
Q:1/4=240
M:3/2
K:Bb
V:1 treble nm="Soprano" snm="S"
V:2 treble nm="Alto" snm="A"
V:3 treble-8 nm="Tenor I" snm="T"
V:4 treble-8 
V:5 bass nm="Bass" snm="B"
V:1
 d8"^Thus saith my Galatea" d4 | d4 e2 d2 d4 | d4 z4 z4 | z4 d4 f4 | %4
w: Thus saith|my Ga- la- te-|a,|thus saith|
w: The young|nymphs all are wed-|ded,|the young|
 d4 e2 d2"^Thomas Morley \n(1557-1603)" d4 | %5
w: my Ga- la- te-|
w: nymphs all are wed-|
[M:4/4][Q:1/4=120][Q:1/4=120][Q:1/4=120][Q:1/4=120] =B4 z2 d2 |: f3 d e2 c2 | d4 d2 d2 | %8
w: a, Love|long hath been de-|lud- ed, When|
w: ded. O|then why do I|tar- ry, Or|
 c3 B A2 G2 | A4 A2 d2 | f3 =e d2 d2 | ^c4 d2 d2 | c2 f2 e2 d2 | c4 d4 | %14
w: shall it be con-|clud- ed? Love|long hath been de-|lud- ed, When|shall it be con-|clud- ed?|
w: let me die or|mar- ry. O|then why do I|tar- ry, Or|let me die or|mar- ry.|
[M:3/2][Q:1/4=240] d6 e2 f4 | g8 f4 | f8 =e4 | f4 c2 d2 e4 | d2 =e2 f8 | %19
w: Fa la la|la, fa|la la|la, Fa la la|la la la|
w: |||||
[M:3/2][Q:1/4=240][Q:1/4=240][Q:1/4=240] =e4 f8 |[M:4/4][Q:1/4=120][Q:1/4=240] d8 x4 | z4 g4- x4 | %22
w: la la|la,|fa|
w: |||
 g4 f4- x4 | f4 e4 x4 | d8- x4 |1 d8 ||1 =B4 z2 d2 :|2 !fermata!=B8 |]2 x8 |] %29
w: * la|* la|la||la. Love|la.||
w: ||||* O|||
V:2
 B8 A4 | B4 c2 B2 A4 | =B4 _B2 G2 A4 | A4 B4 A4 | B4 G2 G2 ^F4 |[M:4/4] G4 z2 B2 |: A3 B G2 G2 | %7
w: Thus saith|my Ga- la- te-|a, Ga- la- te-|a, thus saith|my Ga- la- te-|a, Love|long hath been de-|
w: The young|nymphs all are wed-|ded, all are wed-|ded, the young|nymphs all are wed-|ded. O|then why do I|
 A4 A2 B2 | A3 G =E2 D2 | =E4 ^F2 A2 | A3 A A2 B2 | A4 A2 B2 | A2 F2 G2 B2 | A4 B4 |[M:3/2] B8 A4 | %15
w: lud- ed, When|shall it be con-|clud- ed? Love|long hath been de-|lud- ed, When|shall it be con-|clud- ed?|Fa la|
w: tar- ry, Or|let me die or|mar- ry. O|then why do I|tar- ry, Or|let me die or|mar- ry.||
 G6 A2 B4 | A3 B c2 d2 B4 | A6 F2 G2 A2 | B2 c2 d4 c4 |[M:3/2] B8 A4 |[M:4/4] B8 x4 | z8 x4 | %22
w: la la la|la la la la la|la, fa la la|la la la a|la la|la,||
w: |||||||
 z4 B4 x4 | A4 G4 x4 | ^F4 G4- x4 |1 G4 ^F4 ||1 G4 z2 B2 :|2 !fermata!G8 |]2 x8 |] %29
w: fa|la la|la la|* la|la. Love|la.||
w: ||||* O|||
V:3
 g8 ^f4 | g4 g2 g2 ^f4 | g4 g2 d2 =e4 | ^f4 d4 A4 | F4 c2 d2 d4 |[M:4/4][K:treble-8] d4 z2 g2 |: %6
w: Thus saith|my Ga- la- te-|a, Ga- la- te-|a, thus saith|my Ga- la- te-|a, Love|
w: The young|nymphs all are wed-|ded, all are wed-|ded, the young|nymphs all are wed-|ded. O|
 f3 f e2 g2 | f4 f2 f2 | f3 d ^c2 d2 | ^c4 d2 f2 | d3 =e f2 g2 | =e4 ^f2 =f2 | c2 d2 c2 B2 | %13
w: long hath been de-|lud- ed, When|shall it be con|clud- ed? Love|long hath been de|lud- ed, When|shall it be con-|
w: then why do I|tar- ry, Or|let me die or|mar- ry. O|then why do I|tar- ry, Or|let me die or|
 c4 B4 |[M:4/4] B6 c2 x4 | d4 B8 | B4 c4 x4 | F4 G4 x4 | A8 x4 | G4 F6 x2 | %20
w: clud- ed?|Fa la|la la|la la|la la|la,|fa la|
w: mar- ry.|||||||
[M:3/2][K:treble-8] B4 c8 |[M:3/2] B6 B2 A4 | G4 A4 d4 | c8- c4 | B4 A8 |1 G4 z2 g2 ||1 %26
w: la la|la, fa la|la la. Fa|la *|la la|la. Love|
w: |||||* O|
 !fermata!G8 :|2 x8 |]2 x8 |] %29
w: la.|||
w: |||
V:4
 G8 d4 | G4 c2 G2 d4 | G4 d2 d2 ^c4 | d4 B4 c4 | d4 c2 B2 A4 |[M:4/4][K:treble-8] G4 z2 G2 |: %6
w: Thus saith|my Ga- la- te-|a, Ga- la- te-|a, thus saith|my Ga- la- te-|a, Love|
w: The young|nymphs all are wed-|ded, all are wed-|ded, the young|nymphs all are wed-|ded. O|
 d3 B c2 e2 | d4 d2 B2 | F3 G A2 B2 | A4 D2 A2 | A3 A F2 D2 | A4 A2 d2 | A2 B2 e2 f2 | f4 f4 | %14
w: long hath been de-|lud- ed, When|shall it be con-|clud- ed? Love|long hath been de-|lud- ed, When|shall it be con-|clud- ed?|
w: then why do I|tar- ry, Or|let me die or|mar- ry. O|then why do~I *|tar- ry, Or|let me die or|mar- ry.|
[M:4/4] g8 f4 | e8 d4 | c4 f4 B4 | c8 c4 | f12 | x12 |[M:3/2][K:treble-8] B4 f8 | %21
w: Fa la|la la|la la la|la, fa|la||a la|
w: |||||||
[M:3/2] f4 d4- x4 | d4 c4 x4 | d8 x4 | z4 G4 x4 |1 d8- ||1 d8 :|2 d4 z2 G2 |]2 !fermata!d8 |] %29
w: la. fa|* la|la,|fa|la||la. Love|la.|
w: ||||||* O||
V:5
 z12 | z12 | z4 G,2 B,2 A,4 | D,4 G,4 F,4 | B,,4 C,2 G,,2 D,4 |[M:4/4] G,,8 |: z8 | z8 | z8 | %9
w: ||Ga- la- te-|a, thus saith|my Ga- la- te-|a,||||
w: ||All are wed-|ded, the young|nymphs all are wed-|ded.||||
 z4 z2 D,2 | D,3 ^C, D,2 G,,2 | A,,4 D,2 B,,2 | F,2 D,2 E,2 B,,2 | F,4 B,,4 |[M:3/2] G,8 D,4 | %15
w: Love|long hath been de-|lud- ed, When|shall it be con-|clud- ed?|Fa la|
w: O|then why do I|tar- ry, Or|let me die or|mar- ry.||
 E,8 B,,4 | F,3 G, A,2 B,2 G,4 | F,8 C,4 | D,4 B,,4 F,4 |[M:3/2] G,4 F,8 |[M:4/4] B,,4 G,4 x4 | %21
w: la la|la la la la la|la, fa|la la la|la la|la, fa|
w: ||||||
 F,4 E,4 x4 | D,4 B,,4 x4 | C,8 x4 | D,8- x4 |1 D,8 ||1 G,,8 :|2 !fermata!G,,8 |]2 x8 |] %29
w: la la|la, fa|la|la||la.|la.||
w: ||||||||

